table-alert.svg

<svg  viewBox="0 0 24 24" fill="currentColor"><path  d="M3 4H17C18.11 4 19 4.89 19 6V18C19 19.11 18.11 20 17 20H3C1.9 20 1 19.11 1 18V6C1 4.89 1.9 4 3 4M3 8V12H9V8H3M11 8V12H17V8H11M3 14V18H9V14H3M11 14V18H17V14H11M23 7H21V13H23V7M23 15H21V17H23V15Z"/></svg>

<svg fill="currentColor" viewBox="0 0 24 24"><path d="M3 4h14c1.11 0 2 .89 2 2v12c0 1.11-.89 2-2 2H3a2 2 0 0 1-2-2V6a2 2 0 0 1 2-2m0 4v4h6V8zm8 0v4h6V8zm-8 6v4h6v-4zm8 0v4h6v-4zm12-7h-2v6h2zm0 8h-2v2h2z"/></svg>
